Catalina-light/actions/16/edit-clear-list.svg

<svg xmlns="http://www.w3.org/2000/svg" width="16" height="16" viewBox="0 0 16 16">
 <defs>
  <style id="current-color-scheme" type="text/css">
   .ColorScheme-Text { color:#5c616c; } .ColorScheme-Highlight { color:#5294e2; }
  </style>
 </defs>
 <path style="fill:currentColor" class="ColorScheme-Text" d="M 8.0292969 1.0625 C 4.1759969 1.0625 1.0605469 4.17785 1.0605469 8.03125 C 1.0605469 11.88455 4.1758969 15 8.0292969 15 C 11.882597 15 14.998047 11.88465 14.998047 8.03125 C 14.998047 4.17795 11.882697 1.0625 8.0292969 1.0625 z M 5 5.0039062 L 6 5.0039062 C 6.27614 5.0039062 6.53779 5.1041862 6.71875 5.2851562 L 8 6.5625 L 9.28125 5.2851562 C 9.46125 5.1041563 9.7219531 5.0039062 10.001953 5.0039062 L 11.001953 5.0039062 L 11.001953 6.0039062 C 11.001953 6.2800462 10.901663 6.5416862 10.720703 6.7226562 L 9.4394531 8 L 10.720703 9.2851562 C 10.901663 9.4661263 11.003323 9.7277663 11.001953 10.003906 L 11.001953 11.003906 L 10.001953 11.003906 C 9.7258131 11.003906 9.4641631 10.903626 9.2832031 10.722656 L 8.0019531 9.4375 L 6.7207031 10.722656 C 6.5407031 10.902656 6.28 11.001953 6 11.001953 L 5 11.001953 L 5 10.001953 C 5 9.7258131 5.10029 9.4641731 5.28125 9.2832031 L 6.5625 7.9980469 L 5.28125 6.7207031 C 5.10125 6.5407031 5.0019531 6.2779531 5.0019531 6.0019531 L 5 5.0039062 z"/>
</svg>

<svg width="16" height="16" viewBox="0 0 16 16" xmlns="http://www.w3.org/2000/svg">
<defs>
<style id="current-color-scheme" type="text/css">.ColorScheme-Text { color:#5c616c; } .ColorScheme-Highlight { color:#5294e2; }</style>
</defs>
<path class="ColorScheme-Text" d="m8.0293 1.0625c-3.8533 0-6.9688 3.1154-6.9688 6.9688 0 3.8533 3.1154 6.9688 6.9688 6.9688 3.8533 0 6.9688-3.1154 6.9688-6.9688 0-3.8533-3.1154-6.9688-6.9688-6.9688zm-3.0293 3.9414h1c0.27614 0 0.53779 0.10028 0.71875 0.28125l1.2812 1.2773 1.2812-1.2773c0.18-0.181 0.4407-0.28125 0.7207-0.28125h1v1c0 0.27614-0.10029 0.53778-0.28125 0.71875l-1.2812 1.2773 1.2812 1.2852c0.18096 0.18097 0.28262 0.44261 0.28125 0.71875v1h-1c-0.27614 0-0.53779-0.10028-0.71875-0.28125l-1.2812-1.2852-1.2812 1.2852c-0.18 0.18-0.4407 0.2793-0.7207 0.2793h-1v-1c0-0.27614 0.10029-0.53778 0.28125-0.71875l1.2812-1.2852-1.2812-1.2773c-0.18-0.18-0.2793-0.44275-0.2793-0.71875l-0.0019531-0.99805z" fill="currentColor"/>
</svg>
